icons/merge-units-16.svg

<svg xmlns="http://www.w3.org/2000/svg" viewBox="0 0 16 16"><path d="M10 8H9V6h1zM9 3v2h1V4h5v4h-2V6l-3 2.5 3 2.5V9h2v4h-5v-1H9v2h7V3zm1 6H9v2h1zM7 8h1V6H7zm0 3h1V9H7zM1 8v6h7v-2H7v1H2V9h2v2l3-2.5L4 6v2H2V4h5v1h1V3H1z"/><path fill="none" d="M0 0h16v16H0z"/></svg>

<svg id="icons" xmlns="http://www.w3.org/2000/svg" viewBox="0 0 16 16"><defs><style>.cls-1{fill:none;}</style></defs><path d="M10,8H9V6h1ZM9,3V5h1V4h5V8H13.00006V6L10,8.5,13.00006,11V9H15v4H10V12H9v2h7V3Zm1,6H9v2h1ZM7,8H8V6H7Zm0,3H8V9H7ZM1,8v6H8V12H7v1H2V9H3.99994v2L7,8.49994,3.99994,6V8H2V4H7V5H8V3H1Z"/><rect class="cls-1" width="16" height="16"/></svg>
